X:1
T:Title
%%score { ( 1 3 ) | ( 2 4 ) }
L:1/8
Q:1/4=108
M:4/4
K:D
V:1 treble nm="Grand Piano"
V:3 treble 
V:2 bass 
V:4 bass 
V:1
 F2 D2 [EA]2 D2 | E2 G2 F4 | B2 A2 [Gc]2 [Fd]2 | [EG]2 [DF]2 [CE]4 | F2 D2 [EA]2 [Ec]2 | z4 c4 | %6
w: William~Boyce * * *||||||
 d2 B2 G2 F2 |[M:8/4] .[B,DG]2[K:bass] .[E,CE]2 [F,D]4 z8 |[M:4/4][K:treble] [B,DG]8 | [A,DF]8 |] %10
w: ||||
V:2
 [D,A,D]2 [B,,B,]2 [C,A,]2 [D,F,]2 | [G,B,D]2 [A,C]2 [D,A,D]4 | [G,D]2 [F,A,D]2 [E,G,]2 [D,A,]2 | %3
 [C,A,]2 [D,A,]2 [A,,A,]4 | [D,A,D]2 [F,A,]2 [C,A,]2 [A,,A,]2 | [D,A,]2 [E,^G,E]2 [A,E]4 | %6
 [F,A,D]2 [G,D]2 [E,G,C]2 [D,A,D]2 |[M:8/4] z .F2 G, D,4 z8 |[M:4/4] G,,8 | D,8 |] %10
V:3
 x8 | x8 | x8 | x8 | x8 | [FB]2 d2 z2 ^G,2 | x8 |[M:8/4] x2[K:bass] x14 |[M:4/4][K:treble] x8 | %9
 x8 |] %10
V:4
 x8 | x8 | x8 | x8 | x8 | x8 | x8 |[M:8/4] G,,2 A,,2 z4 z8 |[M:4/4] x8 | x8 |] %10

